src/images/searchButton.svg

<svg width="34" height="34" viewBox="0 0 34 34" fill="none" xmlns="http://www.w3.org/2000/svg">
<rect width="34" height="34" rx="17" fill="black"/>
<path fill-rule="evenodd" clip-rule="evenodd" d="M18.7927 18.2638C17.3608 19.6957 15.0391 19.6957 13.6072 18.2638C12.1753 16.8319 12.1753 14.5103 13.6072 13.0783C15.0391 11.6464 17.3608 11.6464 18.7927 13.0783C20.2246 14.5103 20.2246 16.8319 18.7927 18.2638ZM19.2331 19.6468C17.2728 21.1462 14.4572 20.9994 12.6644 19.2066C10.7118 17.254 10.7118 14.0882 12.6644 12.1355C14.617 10.1829 17.7829 10.1829 19.7355 12.1355C21.5282 13.9283 21.675 16.7437 20.1758 18.7039L23.7425 22.2706L22.7997 23.2134L19.2331 19.6468Z" fill="white"/>
</svg>

<svg xmlns="http://www.w3.org/2000/svg" width="34" height="34" fill="none" xmlns:v="https://vecta.io/nano"><rect width="34" height="34" rx="17" fill="#000"/><path fill-rule="evenodd" d="M18.793 18.264a3.67 3.67 0 0 1-5.185 0 3.67 3.67 0 0 1 0-5.185 3.67 3.67 0 0 1 5.185 0 3.67 3.67 0 0 1 0 5.185zm.44 1.383a5 5 0 0 1-6.569-7.511 5 5 0 0 1 7.511 6.568l3.567 3.567-.943.943-3.567-3.567z" fill="#fff"/></svg>
